X:1
T:9 Lieder und Gesänge, Op.63
T:Heimweh II
T:8. Heimweh II
T:Johannes Brahms
T:Klaus Groth
T:9 Lieder und Gesänge, Op.63
T:Creative Commons copyright waiver (CC0 1.0 Universal) 
T:Creative Commons copyright waiver (CC0 1.0 Universal) 
T:Creative Commons copyright waiver (CC0 1.0 Universal) 
T:Creative Commons copyright waiver (CC0 1.0 Universal) 
C:Johannes Brahms
Z:Klaus Groth
Z:Creative Commons copyright waiver (CC0 1.0 Universal)
Z:
L:1/8
M:6/4
K:E
V:1 treble nm="Singstimme\nVoice"
V:1
 z12 | z12 | z12 | z6 z2 z2 B2 | B4 B2 c4 c2 | f4 d2 B4 B2 | (e2 c2) A2 (E2 G2) B2 | %7
w: |||O|wüsst ich doch den|Weg zu- rück, den|lie- * ben Weg _ zum|
 (e2 c2) G2 F4 B2 | =c4 A2 A4 =G2 | =G4 =F2 E4 E2 | B4 B2 ^c4 c2 ||[M:9/4] F4 F2 (A6- A2 G2) F2 || %12
w: Kin- * der- land! O|war- um sucht ich|nach dem Glück und|liess der Mut- ter|Hand, der Mut- * * ter|
[M:6/4] E4 z2 z6 | z12 | B2 B2 B2 =c4 ^c2 | =d4 =c2 B4 B2 | A4 =G2 F4 =c2 | (B2 =G2) e2 ^d4 d2 | %18
w: Hand?||O wie mich seh- net|aus- zu- ruhn, von|kei- nem Stre- ben|auf- * ge- weckt, die|
 d4 c2 B4 F2 | d4 c2 ^B4 G2 | e4 d2 (c2 G2) =B2 | ^A4 z2 z4 d2 | (f2 e2) G2 B4 ^A2 | B4 z2 z6 | %24
w: mü- den Au- gen|zu- zu- tun, von|Lie- be sanft * be-|deckt, von|Lie- * be sanft be-|deckt!|
 B2 B2 B2 =c4 ^c2 | =d4 =c2 B4 B2 | (B2 A2) =G2 (G2 F2) A2 | (=G2 B2) e2 ^d4 d2 | d4 c2 B4 F2 | %29
w: Und nichts zu for- schen,|nichts zu spähn, und|nur _ zu träu- * men|leicht _ und lind, der|Zeit- ten Wan- del|
 d4 c2 ^B4 G2 | e4 d2 (c2 G2) =B2 | ^A4 z2 z4 d2 | (f2 e2) G2 B4 ^A2 | B4 z2 z6 | z6 z2 z2 B2 | %35
w: nicht zu sehn, zum|zwei- ten Mal _ ein|Kind, zum|zwei- * ten Mal ein|Kind!|O|
 B4 B2 c4 c2 | f4 d2 B4 B2 | (e2 c2) A2 (E2 G2) B2 | (e2 c2) G2 F4 B2 | =c4 A2 A4 =G2 | %40
w: zeigt mir doch den|Weg zu- rück, den|lie- * ben Weg _ zum|Kin- * der- land! Ver-|ge- bens such ich|
 =G4 =F2 E4 E2 | B4 B2 =c4 c2 ||[M:9/4] ^F4 z2 (A6- A2 =G2) F2 ||[M:6/4] E4 z8 | z12 | z12 | z12 |] %47
w: nach dem Glück, rings-|um ist ö- der|Strand, ö- * * der|Strand!||||

